!!!!SEGMENT: Any1009a-Missa_Cueur_langoreulx-Kyrie--Montserrat_766.krn
!!!id: Any1009a
!!!SMS: Montserrat 766
!!!AGN: Mass; Kyrie
!!!voices: 5
!!!OPR: Missa Cueur langoreulx (Montserrat 766)
!!!COM: Anonymous
!!!OTL: Kyrie
**kern	**kern	**kern	**kern	**kern
*part5	*part4	*part3	*part2	*part1
*staff5	*staff4	*staff3	*staff2	*staff1
*I"Bassus	*I"Tenor II	*I"Tenor I	*I"Altus	*I"Superius
*I'B	*I'T. II	*I'T. I	*I'A	*I'S
*clefF4	*clefGv2	*clefGv2	*clefGv2	*clefG2
*k[]	*k[]	*k[]	*k[]	*k[]
*C:	*C:	*C:	*C:	*C:
*M2/1	*M2/1	*M2/1	*M2/1	*M2/1
*met(C|)	*met(C|)	*met(C|)	*met(C|)	*met(C|)
=1	=1	=1	=1	=1
!!section: Kyrie I
!!!OMD: Kyrie I
1D	1r	0r	[0d	0r
2GG	2.D	.	.	.
[2D	.	.	.	.
.	4E	.	.	.
=2	=2	=2	=2	=2
4D]	4F	0r	1d]	0r
4C	4G	.	.	.
4BB	1A	.	.	.
4AA	.	.	.	.
1BB	.	.	1d	.
.	2G#i	.	.	.
=3	=3	=3	=3	=3
0AA	2A	[0A	0c	0r
.	2E	.	.	.
.	2.F	.	.	.
.	8EL	.	.	.
.	8DJ	.	.	.
=4	=4	=4	=4	=4
1AA	2E	1A]	1r	0r
.	2F	.	.	.
1AA	1E	1A	1c	.
=5	=5	=5	=5	=5
1.BB	0D	0G	1d	0r
.	.	.	2G	.
2GG	.	.	[2d	.
=6	=6	=6	=6	=6
1GG	2r	1r	4d]	0r
.	.	.	4c	.
.	2D	.	4B	.
.	.	.	4A	.
1GG	2D	1G	1B	.
.	2D	.	.	.
=7	=7	=7	=7	=7
0D	2.F	1A	2A	[0a
.	.	.	2.d	.
.	4G	.	.	.
.	2A	2D	.	.
.	.	.	4e	.
.	2D	[2A	[2f	.
=8	=8	=8	=8	=8
1r	2.F	4A]	4f]	1a]
.	.	4G	4e	.
.	.	4F	4d	.
.	4G	4E	4c	.
2r	1A	1F	1d	1a
2D	.	.	.	.
=9	=9	=9	=9	=9
2.G	1B	[0E	1e	0g
4F	.	.	.	.
4E	2G	.	2r	.
4D	.	.	.	.
[2C	[2c	.	[2e	.
=10	=10	=10	=10	=10
4C]	2c]	0E]	2e]	1r
4D	.	.	.	.
4E	4B	.	4d	.
4F	4A	.	4c	.
2G	2B	.	2B	1g
2C	2c	.	2e	.
=11	=11	=11	=11	=11
2F	2A	0r	2c	1a
2.D	1F	.	2d	.
.	.	.	[1A	2d
4E	.	.	.	.
4F	[2D	.	.	[2a
4G	.	.	.	.
=12	=12	=12	=12	=12
2A	4D]	0r	2A]	4a]
.	4E	.	.	4g
2D	4F	.	2A	4f
.	4G	.	.	4e
1D	2A	.	2A	1f
.	2D	.	2d	.
=13	=13	=13	=13	=13
[0AA	2.A	2.A	2c	[0e
.	.	.	2.A	.
.	8GL	4B	.	.
.	8FJ	.	.	.
.	1E	4c	.	.
.	.	4d	4B	.
.	.	[2e	4c	.
.	.	.	4d	.
=14	=14	=14	=14	=14
0AA]	2r	4e]	2e	0e]
.	.	4d	.	.
.	2E	4c	2A	.
.	.	4B	.	.
.	2E	1c	1A	.
.	2E	.	.	.
=15	=15	=15	=15	=15
2r	2.F	2d	2r	0r
1F	.	4A	2c	.
.	4G	4B	.	.
.	4A	4c	2A	.
.	4F	4d	.	.
2E	[2G	[2e	[2c	.
=16	=16	=16	=16	=16
2C	4G]	4e]	4c]	0r
.	4F	4d	4B	.
2D	4E	1d	4A	.
.	4D	.	4G	.
1AA	1E	.	1A	.
.	.	2c#i	.	.
=17	=17	=17	=17	=17
1D	4D	1d	2r	2.a
.	4E	.	.	.
.	4F	.	2f	.
.	4G	.	.	4b
1r	2A	1r	2e	4cc
.	.	.	.	4dd
.	2G	.	[2g	[2ee
=18	=18	=18	=18	=18
2r	2E	0r	4g]	4ee]
.	.	.	4f	4dd
1AA	2.A	.	4e	4cc
.	.	.	4d	4b
.	.	.	2e	1cc
.	4G	.	.	.
2AA	4F	.	[2f	.
.	4E	.	.	.
=19	=19	=19	=19	=19
2BB	1D	2r	2f]	2dd
2D	.	2d	4e	4a
.	.	.	4d	4b
1AA	1A	2c	2e	4cc
.	.	.	.	4dd
.	.	2A	2c	[2ee
=20	=20	=20	=20	=20
0r	1G	1B	1d	4ee]
.	.	.	.	4dd
.	.	.	.	1dd
.	2r	1A	1e	.
.	2c	.	.	2cc#i
=21	=21	=21	=21	=21
1GG	2B	2r	2.d	1dd
.	2G	2d	.	.
.	.	.	8cL	.
.	.	.	8BJ	.
2.D	2F	2d	1A	1r
.	[2A	2d	.	.
4C	.	.	.	.
=22	=22	=22	=22	=22
2.BB	4A]	1.d	0r	0r
.	4G	.	.	.
.	2G	.	.	.
8AAL	.	.	.	.
8GGJ	.	.	.	.
1AA	4F	.	.	.
.	4G	.	.	.
.	4E	2c	.	.
.	4F	.	.	.
=23	=23	=23	=23	=23
2GG	1G	2B	0r	2r
1G	.	4A	.	2dd
.	.	4G	.	.
.	1r	1A	.	2cc
2F#i	.	.	.	2a
=24	=24	=24	=24	=24
1G	2r	1G	1d	1b
.	2d	.	.	.
2D	1d	1r	1f	1a
2F	.	.	.	.
=25	=25	=25	=25	=25
1G	1.d	0r	2d	2r
.	.	.	2g	2dd
1D	.	.	2.f	1dd
.	2c	.	.	.
.	.	.	4e	.
=26	=26	=26	=26	=26
1GG	2.B	0r	2d	1.dd
.	.	.	2g	.
.	8AL	.	.	.
.	8GJ	.	.	.
1r	1A	.	2e	.
.	.	.	2f	2cc
=27	=27	=27	=27	=27
0r	2G	2r	2d	2b
.	2E	2G	1g	4a
.	.	.	.	4g
.	1F	1c	.	1a
.	.	.	2f	.
=28	=28	=28	=28	=28
1.C	2C	2.c	4g	1g
.	.	.	4f	.
.	1.c	.	4e	.
.	.	4B	4d	.
.	.	2A	2c	1r
2C	.	2G	[2e	.
=29	=29	=29	=29	=29
1D	1.A	2.F	2e]	0r
.	.	.	1d	.
.	.	8EL	.	.
.	.	8DJ	.	.
2AA	.	1E	.	.
2C	[2G	.	2c#i	.
=30	=30	=30	=30	=30
2GG	2G]	2.D	1d	0r
2.D	1F	.	.	.
.	.	4E	.	.
.	.	4F	1r	.
4C	.	4G	.	.
4BB	[2E	[2A	.	.
4AA	.	.	.	.
=31	=31	=31	=31	=31
1BB	2E]	2A]	1r	2r
.	2D	2G#i	.	2g
[1AA	[1E	1A	2r	1cc
.	.	.	[2c	.
=32	=32	=32	=32	=32
2AA]	1E]	2r	4c]	2.cc
.	.	.	4d	.
2C	.	2A	2e	.
.	.	.	.	4b
2D	1r	2F	4f	2a
.	.	.	2d	.
2E	.	2G	.	2g
.	.	.	4c	.
=33	=33	=33	=33	=33
1D	1r	0A	2d	2.f
.	.	.	2A	.
.	.	.	.	8eL
.	.	.	.	8dJ
1AA	2r	.	1c	1e
.	[2A	.	.	.
=34	=34	=34	=34	=34
0r	2A]	2F	2d	2.d
.	2.d	2.D	1f	.
.	.	.	.	4e
.	.	.	.	4f
.	4c	4E	.	4g
.	2A	2F	2d	[2a
=35	=35	=35	=35	=35
2r	2B	1E	1e	2a]
2C	1c	.	.	2g
1F	.	2r	2r	1a
.	[2A	2A	2d	.
=36	=36	=36	=36	=36
2.D	2A]	2.F	2.f	2r
.	1D	.	.	2a
4E	.	4G	4e	.
2F	.	2A	2d	2f
2E	2E	2G	2c	2g
=37	=37	=37	=37	=37
1D	2F	2.F	2A	0a
.	1.A	.	1d	.
.	.	8EL	.	.
.	.	8DJ	.	.
1AA	.	1E	.	.
.	.	.	2c#i	.
=38	=38	=38	=38	=38
0Dl	0Al	0Dl	0dl	0fl
=39||	=39||	=39||	=39||	=39||
*M2/1	*M2/1	*M2/1	*M2/1	*M2/1
*met(C|)	*met(C|)	*met(C|)	*met(C|)	*met(C|)
!!section: Christe
!!!OMD: Christe
0r	2.A	0A	0r	1r
.	4B	.	.	.
.	4c	.	.	2.e
.	4d	.	.	.
.	[2e	.	.	.
.	.	.	.	4f
=40	=40	=40	=40	=40
0r	2e]	1G	0r	4g
.	.	.	.	4a
.	1d	.	.	1b
.	.	1A	.	.
.	2c	.	.	[2a
=41	=41	=41	=41	=41
0r	0d	0B	1r	2a]
.	.	.	.	4g#i
.	.	.	.	4f#i
.	.	.	1d	1g#i
=42	=42	=42	=42	=42
2.D	2r	1A	0f	0a
.	2d	.	.	.
4E	.	.	.	.
4F	2d	2D	.	.
4G	.	.	.	.
[2A	2c	2F	.	.
=43	=43	=43	=43	=43
2A]	2B	1G	1e	1r
1G	4A	.	.	.
.	4G	.	.	.
.	1A	1D	1d	1a
2F#i	.	.	.	.
=44	=44	=44	=44	=44
0G	0G	2r	1d	2b
.	.	2d	.	1g
.	.	2.d	2r	.
.	.	.	2g	4f
.	.	4c	.	4e
=45	=45	=45	=45	=45
2r	0r	2B	2.g	1d
2G	.	4A	.	.
.	.	4G	4f	.
2G	.	2B	2e	2r
2F	.	[2A	[2d	2d
=46	=46	=46	=46	=46
2E	0r	4A]	4d]	4e
.	.	4G	4c	4f
4D	.	1G	1c	4g
4C	.	.	.	4e
1D	.	.	.	1f
.	.	2F	2B	.
=47	=47	=47	=47	=47
0C	1r	0G	2c	2.e
.	.	.	1g	.
.	.	.	.	4d
.	1G	.	.	4e
.	.	.	.	4f
.	.	.	4f	2g
.	.	.	4e	.
=48	=48	=48	=48	=48
0r	1A	1r	2f	2c
.	.	.	1g	2cc
.	1A	1c	.	2a
.	.	.	2f#i	[2cc
=49	=49	=49	=49	=49
0r	0G	1.d	1g	2cc]
.	.	.	.	4b
.	.	.	.	4a
.	.	.	2r	1b
.	.	4c	2d	.
.	.	4B	.	.
=50	=50	=50	=50	=50
1r	0c	1A	2.e	1cc
.	.	.	4f	.
1C	.	2G	2g	2r
.	.	[2A	[2c	2cc
=51	=51	=51	=51	=51
1D	0r	4A]	2c]	2f
.	.	4G	.	.
.	.	4F	4B	2.a
.	.	4E	4A	.
1D	.	1F	1B	.
.	.	.	.	4g
.	.	.	.	[2f
=52	=52	=52	=52	=52
0C	1r	1.G	0c	2f]
.	.	.	.	4e
.	.	.	.	4d
.	1G	.	.	1e
.	.	4F	.	.
.	.	4E	.	.
=53	=53	=53	=53	=53
0F	1A	4D	1d	0f
.	.	4E	.	.
.	.	4F	.	.
.	.	4G	.	.
.	1A	4A	2c	.
.	.	4B	.	.
.	.	[2c	2f	.
=54	=54	=54	=54	=54
0r	0G	2c]	2e	1r
.	.	4B	4d	.
.	.	4A	4c	.
.	.	1B	1d	1g
=55	=55	=55	=55	=55
1r	2.c	1A	2.e	2a
.	.	.	.	2.cc
.	4B	.	4d	.
1C	4A	1E	2e	.
.	4G	.	.	4b
.	[2A	.	[2c	4a
.	.	.	.	4g
=56	=56	=56	=56	=56
0D	4A]	0r	2c]	1f
.	4G	.	.	.
.	4F	.	4B	.
.	4E	.	4A	.
.	1F	.	1B	1d
=57	=57	=57	=57	=57
0C	0E	0G	1c	1e
.	.	.	2r	2c
.	.	.	[2c	[2cc
=58	=58	=58	=58	=58
2.F	0r	2.A	2c]	2cc]
.	.	.	2c	1a
4E	.	4G	.	.
4D	.	4F	2.d	.
4C	.	4E	.	.
[2D	.	[2F	.	2a
.	.	.	4c	.
=59	=59	=59	=59	=59
4D]	1r	4F]	2B	2b
4C	.	4E	.	.
4BB	.	1E	2A	2cc
4AA	.	.	.	.
1BB	1G	.	3G	1dd
.	.	.	3A	.
.	.	2D	.	.
.	.	.	3B	.
=60	=60	=60	=60	=60
0AA	1A	1E	2c	1cc
.	.	.	2A	.
.	1F	1A	2.c	2a
.	.	.	.	[2cc
.	.	.	4d	.
=61	=61	=61	=61	=61
0r	0E	1G	2e	2cc]
.	.	.	2.e	2b
.	.	[1c	.	2g
.	.	.	4d	.
.	.	.	4c	[2a
.	.	.	4B	.
=62	=62	=62	=62	=62
1r	1r	2c]	1A	2a]
.	.	2c	.	4g
.	.	.	.	4f
1C	1E	1c	1G	1e
=63	=63	=63	=63	=63
1D	1F	2B	2r	2d
.	.	1A	1d	2a
1BB	1D	.	.	1b
.	.	2G#i	2d	.
=64	=64	=64	=64	=64
[0AAl	[0El	[0Al	2c	1cc
.	.	.	2A	.
.	.	.	2.c	2a
.	.	.	.	[2cc
.	.	.	4d	.
=65	=65	=65	=65	=65
0AA_	0E_	0A_	1.e	4cc]
.	.	.	.	4b
.	.	.	.	1a
.	.	.	4d	4g
.	.	.	4c	4f
=66	=66	=66	=66	=66
0AA]	0E]	0A]	0cl	0el
=67||	=67||	=67||	=67||	=67||
*M2/1	*M2/1	*M2/1	*M2/1	*M2/1
*met(C|)	*met(C|)	*met(C|)	*met(C|)	*met(C|)
!	!	!	!	!LO:TX:a:t=Canon&colon; superius/altus at the lower fifth
!!section: Kyrie II
!!!OMD: Kyrie II
0GG	0D	1.d	0r	0g
.	.	2d	.	.
=68	=68	=68	=68	=68
1D	1.F	1d	0r	1a
1D	.	2.A	.	1a
.	2F	.	.	.
.	.	4B	.	.
=69	=69	=69	=69	=69
2E	2C	2.c	0c	0g
2.C	2.E	.	.	.
.	.	8BL	.	.
.	.	8AJ	.	.
.	.	1G	.	.
4D	4F	.	.	.
4E	4G	.	.	.
4C	4A	.	.	.
=70	=70	=70	=70	=70
2G	2B	0r	1d	0r
2F	1c	.	.	.
1G	.	.	1d	.
.	2B	.	.	.
=71	=71	=71	=71	=71
2.C	1c	2r	0c	1r
.	.	2.G	.	.
4D	.	.	.	.
2E	2G	.	.	1g
.	.	4F	.	.
2C	[2c	2E	.	.
=72	=72	=72	=72	=72
2.F	4c]	2D	0r	1a
.	4B	.	.	.
.	4A	2.A	.	.
4E	4G	.	.	.
2D	2F	.	.	1a
.	.	4B	.	.
2C	[2E	2c	.	.
=73	=73	=73	=73	=73
1BB	2E]	2d	1r	1g
.	2D	2G	.	.
1AA	1E	2.A	1c	2.cc
.	.	4G	.	4b
=74	=74	=74	=74	=74
1.D	0r	2.F	1d	2a
.	.	.	.	2g
.	.	8EL	.	.
.	.	8DJ	.	.
.	.	1A	1d	1f
2D	.	.	.	.
=75	=75	=75	=75	=75
1AA	2r	2r	1c	1e
.	2E	2c	.	.
1r	2D	2.d	2.f	1r
.	2F	.	.	.
.	.	4c	4e	.
=76	=76	=76	=76	=76
0r	2G	2B	2d	1r
.	2A	2A	2c	.
.	1G	1d	1B	1g
=77	=77	=77	=77	=77
1AA	2E	1c	1A	1a
.	1A	.	.	.
1D	.	2.A	1r	1f
.	2F	.	.	.
.	.	4B	.	.
=78	=78	=78	=78	=78
2.C	2G	2c	1r	0e
.	2.C	2G	.	.
4BB	.	.	.	.
1AA	.	1A	1c	.
.	4D	.	.	.
.	4E	.	.	.
.	4C	.	.	.
=79	=79	=79	=79	=79
0GG	1G	1D	1d	1r
.	2r	2r	1B	1g
.	2D	2d	.	.
=80	=80	=80	=80	=80
1r	2.F	2c	0A	1a
.	.	2.d	.	.
.	4G	.	.	.
1D	2A	.	.	1f
.	.	4c	.	.
.	2F	4A	.	.
.	.	4B	.	.
=81	=81	=81	=81	=81
2C	2G	1c	1r	2e
2AA	1.A	.	.	2cc
2AA	.	1e	1c	2cc
2AA	.	.	.	2cc
=82	=82	=82	=82	=82
1D	1F	2d	1d	2b
.	.	2f	.	1a
1E	1G	1e	1B	.
.	.	.	.	2g
=83	=83	=83	=83	=83
1AA	2E	1c	2A	0a
.	1.A	.	2f	.
2D	.	2d	2f	.
2AA	.	[2c	2f	.
=84	=84	=84	=84	=84
2C	2G	4c]	2e	2r
.	.	4B	.	.
2D	2F	4A	1d	2a
.	.	4G	.	.
1AA	1E	1A	.	1cc
.	.	.	2c	.
=85	=85	=85	=85	=85
0D	1D	2r	0d	2b
.	.	2F	.	1a
.	1A	2.F	.	.
.	.	.	.	4g
.	.	4G	.	4f
=86	=86	=86	=86	=86
2r	1r	2A	2r	2e
1D	.	2B-i	2d	2d
.	2r	2.A	1f	1a
2D	2D	.	.	.
.	.	4BnXi	.	.
=87	=87	=87	=87	=87
2C	2E	2c	2e	2r
2D	2F	2A	1d	2a
1GG	[1D	1G	.	1b
.	.	.	4c	.
.	.	.	4B	.
=88	=88	=88	=88	=88
0r	2D]	2F	2A	2cc
.	1G	2G	2G	1b
.	.	1D	1d	.
.	2F	.	.	[2a
=89	=89	=89	=89	=89
1r	1B-X	1r	2r	2a]
.	.	.	2d	2g
1AA	1A	2r	1e	[1a
.	.	[2A	.	.
=90	=90	=90	=90	=90
2D	2r	4A]	2f	1a]
.	.	4B	.	.
2C	2E	2c	1e	.
2D	2F	2B	.	1r
2F	2D	[2A	[2d	.
=91	=91	=91	=91	=91
1E	2E	2A]	2d]	1r
.	1G	2G	2c#i	.
1D	.	1A	[1d	2r
.	2F#i	.	.	2a
=92	=92	=92	=92	=92
1GG	4G	2r	1d]	1b
.	4A	.	.	.
.	4B	2d	.	.
.	4G	.	.	.
2r	2A	2c	1r	2cc
2G	2G	[2d	.	[2b
=93	=93	=93	=93	=93
2D	1r	4d]	1r	2b]
.	.	4c	.	.
2F	.	2A	.	1a
1G	2r	1B	2r	.
.	2G	.	2d	2g
=94	=94	=94	=94	=94
2r	4c	2A	1e	[0al
.	4B	.	.	.
2C	4A	2c	.	.
.	4G	.	.	.
2D	2F	3A	2f	.
.	.	3B	.	.
2C	[2A	.	[2e	.
.	.	3c	.	.
=95	=95	=95	=95	=95
1D	4A]	2.F	2e]	0a_
.	4G	.	.	.
.	2F	.	1d	.
.	.	4G	.	.
1AA	1E	1A	.	.
.	.	.	2c#i	.
=96	=96	=96	=96	=96
0Dl	0Dl	0Fl	0dl	0a]
==	==	==	==	==
*-	*-	*-	*-	*-
!!!system-decoration: s1,s2,s3,s4,s5
!!!RDF**kern: i = editorial accidental
!!!RDF**kern: l = terminal long
!!!ENC: Maura Sugg
!!!END: 2026/6/27
!!!EED: Benjamin Ory
!!!EEV: 2026/06/29
!!!YEC: Copyright 2026 Benjamin Ory, All Rights Reserved
!!!ONB: Translated from MusicXML on 2026/06/29
!!!verovio: header encoded
!!!header-left: Edited by Zoe Saunders (2010)\n
!!!header-right:
!!!header-center:
!!muse2ps: T^@{OPR}^u^@{ONM}{. }@{OTL}^C^@{COM}^i2I150v90,90,90,90,120c120z18l2770t130
